X:98
T:Reel 98
M:4/4
K:Amaj
L:1/8
E|CE (3EEE A2ED|CEEF EDCA,|CE (3EEE FBBA|GEFG AGAF|EC (3CB,C ABcA|FEFG ABcd|ecdB cABG|FDB,C A,2|EF|A2cA AcBA|GE (3EEE BABG|A2AG Acec|BGEG A2 (3EFG |A2cA cecA|GABA  (3GFE FG|Acec dded|ceBd cAA2|
